**kern	**silbe	**kern	**silbe
*ICvox	*	*ICvox	*
*g:	*	*g:	*
*M4/4	*	*M4/4	*
*clefG2	*	*clefG2	*
r;	.	r;	.
=1	=1	=1	=1
1r	.	1r	.
=2	=2	=2	=2
1r	.	1r	.
=3	=3	=3	=3
1r	.	1r	.
=4	=4	=4	=4
1r	.	1r	.
=5	=5	=5	=5
1r	.	1r	.
=6	=6	=6	=6
1r	.	1r	.
=7	=7	=7	=7
1r	.	1r	.
=8	=8	=8	=8
1r	.	1r	.
=9	=9	=9	=9
1r	.	1r	.
=10	=10	=10	=10
1r	.	1r	.
=11	=11	=11	=11
8B-	Where	1r	.
8A	can	.	.
8B-	you	.	.
8A	find	.	.
4B-	plea-	.	.
8A	-sure_	.	.
[8B-	Search	.	.
=12	=12	=12	=12
8B-]	_	1r	.
8A	the	.	.
8B-	world	.	.
8A	for	.	.
4B-	trea-	.	.
4A	-sure	.	.
=13	=13	=13	=13
8B-	Learn	1r	.
8A	scien-	.	.
8B-	-ce	.	.
8A	te-	.	.
4B-	-chno-	.	.
8c	-lo-	.	.
[8d	-gy	.	.
=14	=14	=14	=14
8d]	_	1r	.
4.d	_	.	.
2r	.	.	.
=15	=15	=15	=15
8e-	Where	1r	.
8d	can	.	.
8e-	you	.	.
8d	be-	.	.
4e-	-gin	.	.
8c	to	.	.
[8d	make	.	.
=16	=16	=16	=16
8d]	_	1r	.
8c	your	.	.
8d	dreams	.	.
8c	all	.	.
4d	come	.	.
4B-	true	.	.
=17	=17	=17	=17
8B-	On	1r	.
8G	the	.	.
8B-	land	.	.
8G	or	.	.
4B-	on	.	.
8c	the	.	.
[8A	sea	.	.
=18	=18	=18	=18
8A]	_	1r	.
4.A	_	.	.
2r	.	.	.
=19	=19	=19	=19
8B-	Where	1r	.
8A	can	.	.
8B-	you	.	.
8A	learn	.	.
4B-	to	.	.
8A	fly	.	.
[8B-	Play	.	.
=20	=20	=20	=20
8B-]	_	1r	.
8A	in	.	.
8B-	sports	.	.
8A	and	.	.
4B-	skin	.	.
4A	dive	.	.
=21	=21	=21	=21
8B-	Stu-	1r	.
8A	-dy	.	.
8B-	o-	.	.
8A	-cea-	.	.
4B-	-nog-	.	.
8c	-ra-	.	.
[8d	-phy	.	.
=22	=22	=22	=22
8d]	_	1r	.
4.d	_	.	.
2r	.	.	.
=23	=23	=23	=23
8e-	Sign	1r	.
8d	up	.	.
8e-	for	.	.
8d	the	.	.
4e-	big	.	.
8c	band	.	.
[8d	Or	.	.
=24	=24	=24	=24
8d]	_	1r	.
8c	sit	.	.
8d	in	.	.
8c	the	.	.
4d	grand-	.	.
4B-	-stand	.	.
=25	=25	=25	=25
8B-	When	1r	.
8G	your	.	.
8B-	team	.	.
8G	and	.	.
4B-	o-	.	.
8c	-thers	.	.
[8A	meet	.	.
=26	=26	=26	=26
8A]	_	2r	.
4.A	_	.	.
2r	.	4r	.
.	.	8.d	In
.	.	16c	the
=27	=27	=27	=27
*G:	*	*G:	*
2r	.	4B	Na-
.	.	4G	-vy
8r	.	2r	.
8D	Yes	.	.
8D	you	.	.
8D	can	.	.
=28	=28	=28	=28
8G	sail	2r	.
8A	the	.	.
16B	se-	.	.
8c	-ven	.	.
[16d	seas	.	.
4d]	_	4r	.
4r	.	8.c	In
.	.	16B	the
=29	=29	=29	=29
2r	.	4c	Na-
.	.	4A	-vy
8r	.	2r	.
8D	Yes	.	.
8D	you	.	.
8D	can	.	.
=30	=30	=30	=30
8A	put	2r	.
8B	your	.	.
8c	mind	.	.
16d	at	.	.
[16e	_	.	.
4e]	_	4r	.
4r	.	8.c	In
.	.	16B	the
=31	=31	=31	=31
2r	.	4c	Na-
.	.	4A	-vy
8r	.	2r	.
8D	Come	.	.
8D	on	.	.
8D	now	.	.
=32	=32	=32	=32
8A	peo-	2r	.
8B	-ple	.	.
16c	make	.	.
16d	a	.	.
[8e	stand	.	.
4e]	_	4r	.
4r	.	8.B	In
.	.	16A	the
=33	=33	=33	=33
2r	.	4B	Na-
.	.	4G	-vy
4r	.	4r	.
8g	Can't	8.d	In
8e	you	.	.
.	.	16c	the
=34	=34	=34	=34
8g	see	4B	Na-
8e	we	.	.
16g	need	4G	-vy
8g	a	.	.
[16e	hand	.	.
4e]	_	4r	.
4r	.	8.d	In
.	.	16c	the
=35	=35	=35	=35
2r	.	4B	Na-
.	.	4G	-vy
8r	.	2r	.
8D	Come	.	.
8D	on	.	.
8D	pro-	.	.
=36	=36	=36	=36
8G	-tect	2r	.
8A	the	.	.
16B	mo-	.	.
16c	-ther	.	.
[8d	land	.	.
4d]	_	4r	.
4r	.	8.c	In
.	.	16B	the
=37	=37	=37	=37
2r	.	4c	Na-
.	.	4A	-vy
8r	.	2r	.
8D	Come	.	.
8D	on	.	.
8D	and	.	.
=38	=38	=38	=38
8A	join	2r	.
8B	your	.	.
16c	fel-	.	.
16d	-low	.	.
[8e	man	.	.
4e]	_	4r	.
4r	.	8.c	In
.	.	16B	the
=39	=39	=39	=39
2r	.	4c	Na-
.	.	4A	-vy
8r	.	2r	.
8g	Come	.	.
8g	on	.	.
8e	peo	.	.
=40	=40	=40	=40
8g	ple,	2r	.
8e	and	.	.
16g	make	.	.
16g	a	.	.
[8e	stand	.	.
4e]	_	4r	.
4r	.	8.B	In
.	.	16A	the
=41	=41	=41	=41
4r	.	4B	Na-
8g	In	4G	-vy
16e	the	.	.
[16g	na-	.	.
8g]	_	4r	.
8e	-vy	.	.
4r	.	8.d	In
.	.	16c	the
=42	=42	=42	=42
4r	.	4B	Na-
8r	.	4G	-vy
4.g	aah	.	.
.	.	4r	.
4r	.	4r	.
=43	=43	=43	=43
*g:	*	*g:	*
1r	.	1r	.
=44	=44	=44	=44
1r	.	1r	.
=45	=45	=45	=45
1r	.	1r	.
=46	=46	=46	=46
1r	.	1r	.
=47	=47	=47	=47
8B-	If	1r	.
8A	you	.	.
8B-	like	.	.
8A	ad-	.	.
4B-	-ven-	.	.
8A	-ture	.	.
[8B-	Don't	.	.
=48	=48	=48	=48
8B-]	_	1r	.
8A	you	.	.
8B-	wait	.	.
8A	to	.	.
4B-	en-	.	.
4A	-ter	.	.
=49	=49	=49	=49
8B-	The	1r	.
8A	re-	.	.
8B-	-cruit-	.	.
8A	-ing	.	.
4B-	of-	.	.
8c	-fice	.	.
[8d	fast	.	.
=50	=50	=50	=50
8d]	_	1r	.
4.d	_	.	.
2r	.	.	.
=51	=51	=51	=51
8e-	Don't	1r	.
8d	you	.	.
8e-	he-	.	.
8d	-si-	.	.
4e-	-tate	.	.
8c	There	.	.
[8d	is	.	.
=52	=52	=52	=52
8d]	_	1r	.
8c	no	.	.
8d	need	.	.
8c	to	.	.
4d	wait	.	.
8G	They're	.	.
[8B-	si-	.	.
=53	=53	=53	=53
8B-]	_	1r	.
8G	-gning	.	.
8B-	up	.	.
8G	new	.	.
4B-	sea-	.	.
8c	-men	.	.
[8A	fast	.	.
=54	=54	=54	=54
8A]	_	1r	.
4.A	_	.	.
2r	.	.	.
=55	=55	=55	=55
8B-	May-	1r	.
8A	-be	.	.
8B-	you	.	.
8A	are	.	.
4B-	too	.	.
8A	young	.	.
[8B-	To	.	.
=56	=56	=56	=56
8B-]	_	1r	.
8A	join	.	.
8B-	up	.	.
8A	to-	.	.
4B-	-day	.	.
4A	But	.	.
=57	=57	=57	=57
8B-	don't	1r	.
8A	you	.	.
8B-	wor-	.	.
8A	-ry	.	.
4B-	'bout	.	.
8c	a	.	.
[8d	thing	.	.
=58	=58	=58	=58
8d]	_	1r	.
4.d	_	.	.
2r	.	.	.
=59	=59	=59	=59
8e-	For	1r	.
8d	I'm	.	.
8e-	sure	.	.
8d	there	.	.
4e-	will	.	.
8c	be	.	.
[8d	Al-	.	.
=60	=60	=60	=60
8d]	_	1r	.
8c	-ways	.	.
8d	a	.	.
8c	good	.	.
4d	na-	.	.
4B-	-vy	.	.
=61	=61	=61	=61
8B-	Pro-	1r	.
8G	-tec-	.	.
8B-	-ting	.	.
8G	the	.	.
4B-	land	.	.
8c	and	.	.
[8A	sea	.	.
=62	=62	=62	=62
8A]	_	2r	.
4.A	_	.	.
2r	.	4r	.
.	.	8.d	In
.	.	16c	the
=63	=63	=63	=63
*G:	*	*G:	*
2r	.	4B	Na-
.	.	4G	-vy
8r	.	2r	.
8D	Yes	.	.
8D	you	.	.
8D	can	.	.
=64	=64	=64	=64
8G	sail	2r	.
8A	the	.	.
16B	se-	.	.
8c	-ven	.	.
[16d	seas	.	.
4d]	_	4r	.
4r	.	8.c	In
.	.	16B	the
=65	=65	=65	=65
2r	.	4c	Na-
.	.	4A	-vy
8r	.	2r	.
8D	Yes	.	.
8D	you	.	.
8D	can	.	.
=66	=66	=66	=66
8A	put	2r	.
8B	your	.	.
8c	mind	.	.
16d	at	.	.
[16e	_	.	.
4e]	_	4r	.
4r	.	8.c	In
.	.	16B	the
=67	=67	=67	=67
2r	.	4c	Na-
.	.	4A	-vy
8r	.	2r	.
8D	Come	.	.
8D	on	.	.
8D	be	.	.
=68	=68	=68	=68
8A	bold	2r	.
8B	and	.	.
16c	make	.	.
16d	a	.	.
[8e	stand	.	.
4e]	_	4r	.
4r	.	8.B	In
.	.	16A	the
=69	=69	=69	=69
2r	.	4B	Na-
.	.	4G	-vy
4r	.	4r	.
8g	Can't	8.d	In
8e	you	.	.
.	.	16c	the
=70	=70	=70	=70
8g	see	4B	Na-
8e	we	.	.
16g	need	4G	-vy
8g	a	.	.
[16e	hand	.	.
4e]	_	4r	.
4r	.	8.d	In
.	.	16c	the
=71	=71	=71	=71
2r	.	4B	Na-
.	.	4G	-vy
8r	.	2r	.
8D	Come	.	.
8D	on,	.	.
8D	pro-	.	.
=72	=72	=72	=72
8G	-tect	2r	.
8A	the	.	.
16B	mo-	.	.
16c	-ther-	.	.
[8d	-land	.	.
4d]	_	4r	.
4r	.	8.c	In
.	.	16B	the
=73	=73	=73	=73
2r	.	4c	Na-
.	.	4A	-vy
8r	.	2r	.
8D	Come	.	.
8D	on	.	.
8D	and	.	.
=74	=74	=74	=74
8A	join	2r	.
8B	your	.	.
16c	fel-	.	.
16d	-low	.	.
[8e	man	.	.
4e]	_	4r	.
4r	.	8.c	In
.	.	16B	the
=75	=75	=75	=75
2r	.	4c	Na-
.	.	4A	-vy
8r	.	2r	.
8D	Come	.	.
8D	on	.	.
8D	be	.	.
=76	=76	=76	=76
8A	bold	2r	.
8B	and	.	.
16c	make	.	.
16d	a	.	.
[8e	stand	.	.
4e]	_	4r	.
4r	.	8.B	In
.	.	16A	the
=77	=77	=77	=77
4r	.	4B	Na-
8g	In	4G	-vy
16e	the	.	.
[16g	na-	.	.
8g]	_	4r	.
8e	-vy	.	.
4r	.	8.d	In
.	.	16c	the
=78	=78	=78	=78
4r	.	4B	Na-
16g	In	4G	-vy
16e	the	.	.
[8a	na-	.	.
8a]	_	4r	.
8g	-vy	.	.
4r	.	4r	.
=79	=79	=79	=79
*g:	*	*g:	*
1r	.	1r	.
=80	=80	=80	=80
1r	.	1r	.
=81	=81	=81	=81
1r	.	1r	.
=82	=82	=82	=82
1r	.	1r	.
=83	=83	=83	=83
1r	.	1r	.
=84	=84	=84	=84
1r	.	1r	.
=85	=85	=85	=85
1r	.	1r	.
=86	=86	=86	=86
1r	.	1r	.
=87	=87	=87	=87
1r	.	1r	.
=88	=88	=88	=88
1r	.	1r	.
=89	=89	=89	=89
1r	.	1r	.
=90	=90	=90	=90
1r	.	1r	.
=91	=91	=91	=91
1r	.	1r	.
=92	=92	=92	=92
1r	.	1r	.
=93	=93	=93	=93
1r	.	1r	.
=94	=94	=94	=94
1r	.	1r	.
=95	=95	=95	=95
1r	.	1r	.
=96	=96	=96	=96
1r	.	1r	.
=97	=97	=97	=97
1r	.	1r	.
=98	=98	=98	=98
1r	.	1r	.
=99	=99	=99	=99
1r	.	1r	.
=100	=100	=100	=100
1r	.	1r	.
=101	=101	=101	=101
1r	.	1r	.
=102	=102	=102	=102
1r	.	2r	.
.	.	4r	.
.	.	8.d	In
.	.	16c	the
=103	=103	=103	=103
*G:	*	*G:	*
2r	.	4B	Na-
.	.	4G	-vy
8r	.	2r	.
8D	Yes	.	.
8D	you	.	.
8D	can	.	.
=104	=104	=104	=104
8G	sail	2r	.
8A	the	.	.
16B	se-	.	.
8c	-ven	.	.
[16d	seas	.	.
4d]	_	4r	.
4r	.	8.c	In
.	.	16B	the
=105	=105	=105	=105
2r	.	4c	Na-
.	.	4A	-vy
8r	.	2r	.
8D	Yes	.	.
8D	you	.	.
8D	can	.	.
=106	=106	=106	=106
8A	put	2r	.
8B	your	.	.
8c	mind	.	.
16d	at	.	.
[16e	_	.	.
4e]	_	4r	.
4r	.	8.c	In
.	.	16B	the
=107	=107	=107	=107
2r	.	4c	Na-
.	.	4A	-vy
8r	.	2r	.
8D	Come	.	.
8D	on	.	.
8D	be	.	.
=108	=108	=108	=108
8A	bold	2r	.
8B	and	.	.
16c	make	.	.
16d	a	.	.
[8e	stand__	.	.
4e]	_	4r	.
4r	.	8.B	In
.	.	16A	the
=109	=109	=109	=109
2r	.	4B	Na-
.	.	4G	-vy
4r	.	4r	.
8g	Can't	8.d	In
8e	you	.	.
.	.	16c	the
=110	=110	=110	=110
8g	see	4B	Na-
8e	we	.	.
16g	need	4G	-vy
8g	a	.	.
[16e	hand__	.	.
4e]	_	4r	.
4r	.	8.d	In
.	.	16c	the
=111	=111	=111	=111
2r	.	4B	Na-
.	.	4G	-vy
4r	.	2r	.
8g	Come	.	.
8e	pro-	.	.
=112	=112	=112	=112
8g	-tect	2r	.
8e	the	.	.
16g	mo-	.	.
8g	-ther-	.	.
[16e	-land_	.	.
4e]	_	4r	.
4r	.	8.c	In
.	.	16B	the
=113	=113	=113	=113
2r	.	4c	Na-
.	.	4A	-vy
8r	.	2r	.
8e	Come	.	.
8g	on	.	.
8e	and	.	.
=114	=114	=114	=114
8g	join	2r	.
8e	your	.	.
16g	fel-	.	.
8e	-low	.	.
[16g	men	.	.
4g]	_	4r	.
4r	.	8.c	In
.	.	16B	the
=115	=115	=115	=115
1r	.	4c	Na-
.	.	4A	-vy
.	.	2r	.
=116	=116	=116	=116
1r	.	1r	.
=117	=117	=117	=117
1r	.	1r	.
=118	=118	=118	=118
1r	.	1r	.
r;	.	r;	.
r;	.	r;	.
*-	*-	*-	*-
!!!ENC: Nathaniel Condit-Schultz